assets/images/audience/smb-icon.svg

<svg xmlns="http://www.w3.org/2000/svg" xmlns:xlink="http://www.w3.org/1999/xlink" width="500" zoomAndPan="magnify" viewBox="0 0 375 374.999991" height="500" preserveAspectRatio="xMidYMid meet" version="1.0"><defs><clipPath id="3abe70e1dd"><path d="M 69.449219 80.367188 L 303 80.367188 L 303 294.867188 L 69.449219 294.867188 Z M 69.449219 80.367188 " clip-rule="nonzero"/></clipPath></defs><g clip-path="url(#3abe70e1dd)"><path fill="#000000" d="M 299.992188 200.9375 C 297.296875 196.648438 293.074219 193.664062 288.105469 192.539062 C 285.65625 191.980469 283.183594 191.90625 280.78125 192.300781 L 280.78125 146.761719 C 288.996094 143.492188 294.824219 135.464844 294.824219 126.097656 L 294.824219 124.242188 C 294.824219 123.734375 294.691406 123.230469 294.425781 122.773438 L 270.464844 81.796875 C 269.941406 80.90625 268.988281 80.359375 267.957031 80.359375 L 161.304688 80.359375 C 160.273438 80.359375 159.320312 80.90625 158.796875 81.796875 L 134.835938 122.773438 C 134.570312 123.230469 134.441406 123.734375 134.441406 124.242188 L 134.441406 126.097656 C 134.441406 135.464844 140.265625 143.492188 148.480469 146.761719 L 148.480469 198.15625 C 144.191406 198.898438 140.03125 200.453125 136.027344 202.835938 L 103.867188 221.957031 L 99.058594 213.871094 C 98.238281 212.492188 96.453125 212.042969 95.074219 212.859375 L 71.050781 227.167969 C 70.339844 227.589844 69.847656 228.296875 69.6875 229.105469 C 69.527344 229.914062 69.71875 230.753906 70.21875 231.414062 L 117.253906 293.714844 C 117.820312 294.464844 118.6875 294.867188 119.574219 294.867188 C 120.082031 294.867188 120.59375 294.738281 121.058594 294.460938 L 137.726562 284.535156 C 138.390625 284.144531 138.863281 283.5 139.058594 282.753906 C 139.246094 282.007812 139.128906 281.214844 138.738281 280.554688 L 132.839844 270.644531 L 144.554688 263.875 L 198.714844 277.503906 C 200.992188 278.082031 203.238281 278.367188 205.445312 278.367188 C 210.28125 278.367188 214.917969 276.988281 219.28125 274.238281 L 294.023438 227.183594 C 302.898438 221.59375 305.578125 209.824219 299.992188 200.9375 Z M 272.597656 142.519531 C 263.898438 142.519531 256.757812 135.710938 256.21875 127.140625 L 288.980469 127.140625 C 288.433594 135.710938 281.300781 142.519531 272.597656 142.519531 Z M 162.96875 86.167969 L 266.292969 86.167969 L 286.855469 121.335938 L 142.40625 121.335938 Z M 250.335938 127.140625 C 249.796875 135.710938 242.65625 142.519531 233.957031 142.519531 C 225.253906 142.519531 218.121094 135.710938 217.574219 127.140625 Z M 211.695312 127.140625 C 211.152344 135.710938 204.011719 142.519531 195.3125 142.519531 C 186.609375 142.519531 179.476562 135.710938 178.929688 127.140625 Z M 140.285156 127.140625 L 173.050781 127.140625 C 172.507812 135.710938 165.371094 142.519531 156.667969 142.519531 C 147.964844 142.519531 140.828125 135.710938 140.285156 127.140625 Z M 154.285156 148.199219 C 155.070312 148.28125 155.863281 148.332031 156.667969 148.332031 C 164.9375 148.332031 172.164062 143.785156 175.992188 137.0625 C 179.820312 143.785156 187.046875 148.332031 195.316406 148.332031 C 203.585938 148.332031 210.8125 143.785156 214.640625 137.0625 C 218.46875 143.785156 225.695312 148.332031 233.964844 148.332031 C 242.234375 148.332031 249.460938 143.785156 253.289062 137.0625 C 257.117188 143.785156 264.34375 148.332031 272.613281 148.332031 C 273.417969 148.332031 274.210938 148.285156 274.996094 148.199219 L 274.996094 194.265625 C 274.582031 194.484375 274.171875 194.714844 273.777344 194.96875 L 221.054688 228.160156 C 222.253906 219.613281 216.722656 211.53125 208.011719 209.441406 L 207.992188 209.4375 L 207.992188 160.382812 C 207.992188 158.78125 206.691406 157.476562 205.085938 157.476562 L 173.527344 157.476562 C 171.925781 157.476562 170.625 158.78125 170.625 160.382812 L 170.625 200.476562 L 163.257812 198.710938 C 160.230469 197.984375 157.238281 197.625 154.300781 197.636719 L 154.300781 148.199219 Z M 202.167969 208.046875 L 176.417969 201.871094 L 176.417969 163.289062 L 202.167969 163.289062 Z M 120.324219 288.148438 L 76.8125 230.507812 L 95.554688 219.34375 L 132.261719 281.035156 Z M 290.925781 222.265625 L 216.183594 269.320312 C 211.21875 272.449219 205.820312 273.308594 200.128906 271.875 L 144.824219 257.957031 C 144.09375 257.773438 143.320312 257.878906 142.667969 258.257812 L 129.867188 265.652344 L 106.835938 226.949219 L 138.988281 207.828125 C 146.214844 203.527344 153.707031 202.394531 161.886719 204.355469 L 206.636719 215.089844 C 212.660156 216.535156 216.398438 222.265625 215.144531 228.136719 C 213.921875 233.863281 208.144531 237.566406 201.984375 236.550781 L 167.402344 230.871094 C 165.820312 230.613281 164.324219 231.683594 164.066406 233.269531 C 163.804688 234.851562 164.878906 236.347656 166.464844 236.605469 L 201.046875 242.285156 C 202.046875 242.449219 203.039062 242.527344 204.023438 242.527344 C 207.871094 242.527344 211.496094 241.296875 214.417969 239.164062 L 214.429688 239.179688 L 276.847656 199.882812 C 279.820312 198.007812 283.359375 197.414062 286.8125 198.199219 C 290.269531 198.980469 293.203125 201.054688 295.070312 204.027344 C 298.957031 210.207031 297.097656 218.382812 290.925781 222.265625 Z M 223.003906 190.363281 L 255.75 190.363281 C 257.351562 190.363281 258.652344 189.0625 258.652344 187.457031 L 258.652344 160.382812 C 258.652344 158.78125 257.351562 157.476562 255.75 157.476562 L 223.003906 157.476562 C 221.402344 157.476562 220.101562 158.78125 220.101562 160.382812 L 220.101562 187.457031 C 220.101562 189.0625 221.402344 190.363281 223.003906 190.363281 Z M 225.90625 163.289062 L 252.84375 163.289062 L 252.84375 184.554688 L 225.90625 184.554688 Z M 225.90625 163.289062 " fill-opacity="1" fill-rule="nonzero"/><path fill="#0cc0df" d="M 299.84375 200.800781 C 297.148438 196.515625 292.929688 193.535156 287.964844 192.410156 C 285.515625 191.851562 283.046875 191.78125 280.648438 192.171875 L 280.648438 146.683594 C 288.855469 143.421875 294.675781 135.402344 294.675781 126.042969 L 294.675781 124.191406 C 294.675781 123.683594 294.546875 123.179688 294.28125 122.726562 L 270.335938 81.796875 C 269.8125 80.90625 268.859375 80.359375 267.832031 80.359375 L 161.246094 80.359375 C 160.214844 80.359375 159.261719 80.90625 158.738281 81.796875 L 134.792969 122.726562 C 134.527344 123.179688 134.398438 123.683594 134.398438 124.191406 L 134.398438 126.042969 C 134.398438 135.402344 140.222656 143.421875 148.429688 146.683594 L 148.429688 198.019531 C 144.144531 198.765625 139.984375 200.316406 135.984375 202.695312 L 103.847656 221.796875 L 99.039062 213.71875 C 98.222656 212.339844 96.4375 211.890625 95.058594 212.707031 L 71.050781 227 C 70.339844 227.417969 69.847656 228.125 69.6875 228.933594 C 69.527344 229.742188 69.71875 230.582031 70.21875 231.242188 L 117.222656 293.472656 C 117.789062 294.21875 118.65625 294.621094 119.539062 294.621094 C 120.046875 294.621094 120.5625 294.492188 121.023438 294.214844 L 137.683594 284.300781 C 138.34375 283.910156 138.820312 283.265625 139.011719 282.519531 C 139.199219 281.777344 139.085938 280.984375 138.691406 280.324219 L 132.796875 270.425781 L 144.507812 263.664062 L 198.628906 277.277344 C 200.910156 277.855469 203.152344 278.140625 205.359375 278.140625 C 210.191406 278.140625 214.824219 276.761719 219.1875 274.015625 L 293.878906 227.011719 C 302.75 221.433594 305.425781 209.675781 299.84375 200.800781 Z M 272.46875 142.449219 C 263.773438 142.449219 256.640625 135.648438 256.097656 127.089844 L 288.839844 127.089844 C 288.292969 135.648438 281.164062 142.449219 272.46875 142.449219 Z M 162.910156 86.164062 L 266.167969 86.164062 L 286.714844 121.289062 L 142.359375 121.289062 Z M 250.222656 127.089844 C 249.679688 135.648438 242.546875 142.449219 233.851562 142.449219 C 225.152344 142.449219 218.023438 135.648438 217.476562 127.089844 Z M 211.601562 127.089844 C 211.058594 135.648438 203.925781 142.449219 195.230469 142.449219 C 186.535156 142.449219 179.40625 135.648438 178.859375 127.089844 Z M 140.242188 127.089844 L 172.984375 127.089844 C 172.441406 135.648438 165.308594 142.449219 156.613281 142.449219 C 147.914062 142.449219 140.78125 135.648438 140.242188 127.089844 Z M 154.230469 148.121094 C 155.015625 148.203125 155.808594 148.253906 156.613281 148.253906 C 164.878906 148.253906 172.097656 143.710938 175.921875 136.996094 C 179.75 143.710938 186.96875 148.253906 195.234375 148.253906 C 203.5 148.253906 210.722656 143.710938 214.546875 136.996094 C 218.371094 143.710938 225.59375 148.253906 233.859375 148.253906 C 242.125 148.253906 249.34375 143.710938 253.171875 136.996094 C 256.996094 143.710938 264.21875 148.253906 272.484375 148.253906 C 273.285156 148.253906 274.078125 148.207031 274.863281 148.121094 L 274.863281 194.136719 C 274.453125 194.351562 274.039062 194.585938 273.644531 194.835938 L 220.957031 227.992188 C 222.15625 219.453125 216.628906 211.382812 207.921875 209.292969 L 207.902344 209.289062 L 207.902344 160.289062 C 207.902344 158.6875 206.601562 157.386719 205 157.386719 L 173.460938 157.386719 C 171.859375 157.386719 170.558594 158.6875 170.558594 160.289062 L 170.558594 200.339844 L 163.199219 198.574219 C 160.171875 197.851562 157.183594 197.492188 154.246094 197.5 L 154.246094 148.121094 Z M 202.082031 207.898438 L 176.347656 201.734375 L 176.347656 163.191406 L 202.082031 163.191406 Z M 120.289062 287.910156 L 76.804688 230.335938 L 95.539062 219.183594 L 132.222656 280.804688 Z M 290.785156 222.105469 L 216.089844 269.105469 C 211.128906 272.230469 205.730469 273.085938 200.042969 271.652344 L 144.777344 257.753906 C 144.046875 257.570312 143.273438 257.675781 142.621094 258.054688 L 129.828125 265.4375 L 106.8125 226.78125 L 138.945312 207.683594 C 146.164062 203.386719 153.652344 202.257812 161.824219 204.214844 L 206.546875 214.9375 C 212.570312 216.378906 216.304688 222.105469 215.050781 227.964844 C 213.828125 233.6875 208.058594 237.386719 201.898438 236.371094 L 167.339844 230.699219 C 165.757812 230.441406 164.261719 231.511719 164.007812 233.09375 C 163.746094 234.675781 164.820312 236.167969 166.402344 236.425781 L 200.960938 242.097656 C 201.964844 242.261719 202.953125 242.339844 203.9375 242.339844 C 207.78125 242.339844 211.402344 241.113281 214.324219 238.984375 L 214.335938 239 L 276.714844 199.746094 C 279.683594 197.875 283.21875 197.277344 286.671875 198.0625 C 290.125 198.847656 293.058594 200.917969 294.925781 203.886719 C 298.808594 210.058594 296.949219 218.226562 290.785156 222.105469 Z M 222.90625 190.238281 L 255.628906 190.238281 C 257.230469 190.238281 258.53125 188.9375 258.53125 187.335938 L 258.53125 160.289062 C 258.53125 158.6875 257.230469 157.386719 255.628906 157.386719 L 222.90625 157.386719 C 221.304688 157.386719 220.003906 158.6875 220.003906 160.289062 L 220.003906 187.335938 C 220.003906 188.9375 221.304688 190.238281 222.90625 190.238281 Z M 225.804688 163.191406 L 252.726562 163.191406 L 252.726562 184.433594 L 225.804688 184.433594 Z M 225.804688 163.191406 " fill-opacity="1" fill-rule="nonzero"/></g></svg>

<svg xmlns="http://www.w3.org/2000/svg" width="500" height="500" viewBox="0 0 375 375">
  <defs>
    <clipPath id="a">
      <path d="M69.45 80.367H303v214.5H69.45Zm0 0"/>
    </clipPath>
  </defs>
  <g clip-path="url(#a)">
    <path d="M299.992 200.938c-2.695-4.29-6.918-7.274-11.887-8.399a19 19 0 0 0-7.324-.238v-45.54c8.215-3.269 14.043-11.296 14.043-20.663v-1.856c0-.508-.133-1.012-.398-1.469l-23.961-40.976a2.91 2.91 0 0 0-2.508-1.438H161.305a2.91 2.91 0 0 0-2.508 1.438l-23.961 40.976c-.266.457-.395.961-.395 1.47v1.855c0 9.367 5.825 17.394 14.04 20.664v51.394c-4.29.742-8.45 2.297-12.454 4.68l-32.16 19.121-4.808-8.086a2.91 2.91 0 0 0-3.985-1.012l-24.023 14.309a2.906 2.906 0 0 0-.832 4.246l47.035 62.3a2.9 2.9 0 0 0 2.32 1.153c.508 0 1.02-.129 1.485-.406l16.668-9.926a2.91 2.91 0 0 0 1.332-1.781c.187-.746.07-1.54-.32-2.2l-5.9-9.91 11.716-6.769 54.16 13.629c2.277.578 4.523.863 6.73.863 4.836 0 9.473-1.379 13.836-4.129l74.742-47.054c8.875-5.59 11.555-17.36 5.97-26.246m-27.394-58.418c-8.7 0-15.84-6.81-16.38-15.38h32.762c-.546 8.57-7.68 15.38-16.382 15.38m-109.63-56.352h103.325l20.562 35.168H142.406Zm87.368 40.973c-.54 8.57-7.68 15.379-16.379 15.379-8.703 0-15.836-6.81-16.383-15.38Zm-38.64 0c-.544 8.57-7.684 15.379-16.383 15.379-8.704 0-15.836-6.81-16.383-15.38Zm-71.41 0h32.765c-.543 8.57-7.68 15.379-16.383 15.379s-15.84-6.81-16.383-15.38m14 21.058a23 23 0 0 0 2.382.133c8.27 0 15.496-4.547 19.324-11.27 3.828 6.723 11.055 11.27 19.324 11.27s15.496-4.547 19.325-11.27c3.828 6.723 11.054 11.27 19.324 11.27s15.496-4.547 19.324-11.27c3.828 6.723 11.055 11.27 19.324 11.27q1.207-.002 2.383-.133v46.067c-.414.218-.824.449-1.219.703l-52.722 33.191c1.199-8.547-4.332-16.629-13.043-18.719l-.02-.004v-49.054c0-1.602-1.3-2.906-2.906-2.906h-31.559a2.907 2.907 0 0 0-2.902 2.906v40.094l-7.367-1.766c-3.028-.727-6.02-1.086-8.957-1.074v-49.438Zm47.882 59.848-25.75-6.176V163.29h25.75Zm-81.844 80.101-43.511-57.64 18.742-11.164 36.707 61.691Zm170.602-65.882-74.742 47.054c-4.965 3.13-10.364 3.989-16.055 2.555l-55.305-13.918a2.9 2.9 0 0 0-2.156.3l-12.8 7.395-23.032-38.703 32.152-19.12c7.227-4.302 14.719-5.434 22.899-3.474l44.75 10.735c6.023 1.445 9.761 7.176 8.508 13.047-1.223 5.726-7 9.43-13.16 8.414l-34.583-5.68a2.904 2.904 0 0 0-3.336 2.399 2.9 2.9 0 0 0 2.399 3.335l34.582 5.68q1.5.244 2.976.242c3.848 0 7.473-1.23 10.395-3.363l.012.016 62.418-39.297c2.972-1.875 6.511-2.469 9.964-1.684 3.458.781 6.391 2.856 8.258 5.828 3.887 6.18 2.028 14.356-4.144 18.239m-67.922-31.903h32.746c1.602 0 2.902-1.3 2.902-2.906v-27.074c0-1.602-1.3-2.906-2.902-2.906h-32.746a2.907 2.907 0 0 0-2.902 2.906v27.074c0 1.606 1.3 2.906 2.902 2.906m2.902-27.074h26.938v21.266h-26.938Zm0 0"/>
    <path fill="#0cc0df" d="M299.844 200.8c-2.696-4.284-6.914-7.265-11.88-8.39a19 19 0 0 0-7.316-.238v-45.488c8.207-3.262 14.028-11.282 14.028-20.641v-1.852c0-.507-.13-1.011-.395-1.464l-23.945-40.93a2.91 2.91 0 0 0-2.504-1.438H161.246a2.91 2.91 0 0 0-2.508 1.438l-23.945 40.93a2.9 2.9 0 0 0-.395 1.464v1.852c0 9.36 5.825 17.379 14.032 20.64v51.337c-4.285.746-8.446 2.296-12.446 4.675l-32.136 19.102-4.809-8.078a2.906 2.906 0 0 0-3.98-1.012L71.05 227a2.9 2.9 0 0 0-1.364 1.934c-.16.808.032 1.648.532 2.308l47.004 62.23a2.9 2.9 0 0 0 2.316 1.15c.508 0 1.023-.13 1.484-.407l16.66-9.914a2.902 2.902 0 0 0 1.008-3.977l-5.894-9.898 11.71-6.762 54.122 13.613q3.42.865 6.73.864c4.832 0 9.465-1.38 13.828-4.125l74.692-47.004c8.871-5.578 11.547-17.336 5.965-26.211m-27.375-58.35c-8.696 0-15.828-6.802-16.371-15.36h32.742c-.547 8.558-7.676 15.36-16.371 15.36M162.91 86.163h103.258l20.547 35.125H142.359Zm87.313 40.926c-.543 8.558-7.676 15.36-16.371 15.36-8.7 0-15.829-6.802-16.375-15.36Zm-38.621 0c-.543 8.558-7.676 15.36-16.372 15.36s-15.824-6.802-16.37-15.36Zm-71.36 0h32.742c-.543 8.558-7.675 15.36-16.37 15.36-8.7 0-15.833-6.802-16.372-15.36m13.988 21.031a23 23 0 0 0 2.383.133c8.266 0 15.485-4.543 19.309-11.258 3.828 6.715 11.047 11.258 19.312 11.258s15.489-4.543 19.313-11.258c3.824 6.715 11.047 11.258 19.312 11.258s15.485-4.543 19.313-11.258c3.824 6.715 11.047 11.258 19.312 11.258q1.201-.002 2.38-.133v46.016c-.41.215-.825.449-1.22.699l-52.687 33.156c1.2-8.539-4.328-16.61-13.035-18.699l-.02-.004v-49c0-1.601-1.3-2.902-2.902-2.902h-31.54a2.904 2.904 0 0 0-2.901 2.902v40.05l-7.36-1.765c-3.027-.722-6.015-1.082-8.953-1.074v-49.379Zm47.852 59.777-25.734-6.164v-38.543h25.734Zm-81.793 80.012-43.484-57.574 18.734-11.152 36.684 61.62Zm170.496-65.805-74.695 47c-4.961 3.125-10.36 3.98-16.047 2.547l-55.266-13.898a2.9 2.9 0 0 0-2.156.3l-12.793 7.384-23.016-38.657 32.133-19.097c7.22-4.297 14.707-5.426 22.88-3.47l44.722 10.724c6.023 1.44 9.758 7.167 8.504 13.027-1.223 5.722-6.992 9.422-13.153 8.406L167.34 230.7a2.9 2.9 0 0 0-3.332 2.395 2.9 2.9 0 0 0 2.394 3.332l34.559 5.672c1.004.164 1.992.242 2.976.242 3.844 0 7.465-1.227 10.387-3.356l.012.016 62.379-39.254c2.969-1.871 6.504-2.469 9.957-1.684 3.453.786 6.387 2.856 8.254 5.825 3.883 6.172 2.023 14.34-4.14 18.218m-67.879-31.867h32.723c1.601 0 2.902-1.3 2.902-2.902v-27.047c0-1.601-1.3-2.902-2.902-2.902h-32.723a2.904 2.904 0 0 0-2.902 2.902v27.047c0 1.601 1.3 2.902 2.902 2.902m2.899-27.047h26.922v21.243h-26.922Zm0 0"/>
  </g>
</svg>
